icons/outline/time-duration-5.svg

<!--
tags: [five, minutes, interval, timer, duration, short, quick, brief, span, clock]
category: System
version: "2.22"
unicode: "fad9"
-->
<svg
  xmlns="http://www.w3.org/2000/svg"
  width="24"
  height="24"
  viewBox="0 0 24 24"
  fill="none"
  stroke="currentColor"
  stroke-width="2"
  stroke-linecap="round"
  stroke-linejoin="round"
>
  <path d="M10 15h2a1.5 1.5 0 0 0 0 -3h-2v-3h3.5m-10.5 3v.01m18 -.01v.01m-9 8.99v.01m-4.5 -16.81v.01m9 15.59v.01m-9 -.01v.01m-3.3 -3.31v.01m15.6 -.01v.01m0 -9.01v.01m-15.6 -.01v.01m12.3 -3.304a9.042 9.042 0 0 0 -4.5 -1.206" />
</svg>

<!--
tags: [five, minutes, interval, timer, duration, short, quick, brief, span, clock]
category: System
version: "2.22"
unicode: "fad9"
-->
<svg
  xmlns="http://www.w3.org/2000/svg"
  width="24"
  height="24"
  viewBox="0 0 24 24"
  fill="none"
  stroke="currentColor"
  stroke-width="2"
  stroke-linecap="round"
  stroke-linejoin="round"
>
    <path d="M10 15h2a1.5 1.5 0 0 0 0 -3h-2v-3h3.5M3 12v.01M21 12v.01M12 21v.01M7.5 4.2v.01M16.5 19.8v.01M7.5 19.8v.01M4.2 16.5v.01M19.8 16.5v.01M19.8 7.5v.01M4.2 7.5v.01M16.5 4.206a9.042 9.042 0 0 0 -4.5 -1.206" />
</svg>
